src/components/Icon/assets/info-filled.svg

<svg width="24" height="24" viewBox="0 0 24 24" fill="none" xmlns="http://www.w3.org/2000/svg">
<path fill-rule="evenodd" clip-rule="evenodd" d="M11.9997 9.00011C11.1717 9.00011 10.4997 8.32811 10.4997 7.50011C10.4997 6.67111 11.1717 6.00011 11.9997 6.00011C12.8287 6.00011 13.4997 6.67111 13.4997 7.50011C13.4997 8.32811 12.8287 9.00011 11.9997 9.00011V9.00011ZM10.9997 18.0001H12.9997V10.0001H10.9997V18.0001ZM11.9997 2.00011C6.48569 2.00011 1.99969 6.48611 1.99969 12.0001C1.99969 17.5141 6.48569 22.0001 11.9997 22.0001C17.5147 22.0001 21.9997 17.5141 21.9997 12.0001C21.9997 6.48611 17.5147 2.00011 11.9997 2.00011V2.00011Z" fill="#65676A"/>
</svg>

<svg xmlns="http://www.w3.org/2000/svg" width="24" height="24" viewBox="0 0 24 24">
    <path fill="#65676A" fill-rule="evenodd" d="M12 9c-.828 0-1.5-.672-1.5-1.5 0-.829.672-1.5 1.5-1.5.829 0 1.5.671 1.5 1.5 0 .828-.671 1.5-1.5 1.5zm-1 9h2v-8h-2v8zm1-16C6.486 2 2 6.486 2 12s4.486 10 10 10c5.515 0 10-4.486 10-10S17.515 2 12 2z"/>
</svg>
